frontend/public/svg/interface/center-align-2.svg

<svg width="104" height="121" viewBox="0 0 104 121" fill="none" xmlns="http://www.w3.org/2000/svg">
<g clip-path="url(#clip0)">
<path d="M55.3805 55.3966C59.4234 55.3966 63.1833 55.3426 66.9389 55.4258C68.2617 55.4185 69.5748 55.6406 70.8218 56.0822C73.779 57.2493 74.077 60.0206 71.5837 62.06C70.2686 63.109 68.6077 63.6204 66.9331 63.4913C63.7228 63.3694 60.5112 63.2658 57.2986 63.1803C56.7706 63.1653 56.2408 63.2409 55.8087 63.2682V91.0565C57.3207 91.1736 58.4886 91.3167 59.6598 91.3473C71.1794 91.6686 82.7025 91.9126 94.2184 92.3322C96.5271 92.4577 98.8067 92.9047 100.992 93.6599C102.708 94.2246 103.473 95.9485 103.36 97.7069C103.346 98.5546 103.065 99.3762 102.559 100.055C102.052 100.733 101.345 101.233 100.538 101.483C99.4986 101.855 98.4077 102.061 97.3051 102.095C93.0957 102.073 88.887 101.981 84.6783 101.818C76.4862 101.505 68.2967 101.125 60.1049 100.787C59.0178 100.742 57.927 100.781 56.6372 100.781C56.6372 102.512 56.5277 104.033 56.6605 105.539C56.9151 108.415 57.4275 111.273 57.5908 114.153C57.6809 115.582 57.4506 117.014 56.917 118.343C56.7197 118.871 56.3855 119.335 55.949 119.69C55.5127 120.044 54.9899 120.275 54.435 120.357C53.88 120.441 53.313 120.374 52.7927 120.163C52.2724 119.951 51.8176 119.605 51.4755 119.158C50.3723 117.779 49.5942 116.166 49.1992 114.441C48.5171 111.304 48.2398 108.077 47.8285 104.884C47.6452 103.465 47.546 102.036 47.3886 100.407C46.2549 100.313 45.2995 100.177 44.344 100.161C31.9341 99.9623 19.5249 99.7893 7.11562 99.5759C6.01504 99.5902 4.91803 99.4465 3.85781 99.1498C3.09574 98.9625 2.41926 98.5214 1.93845 97.8982C1.45764 97.2756 1.20078 96.508 1.2096 95.7202C1.23785 94.8771 1.55315 94.0691 2.10285 93.4309C2.65256 92.7934 3.40349 92.3634 4.23034 92.2144C6.30325 91.8423 8.4012 91.6283 10.5062 91.5737C21.4722 91.3291 32.44 91.1593 43.4078 90.9693C44.5007 90.9504 45.5948 90.9693 47.1197 90.9693C46.8807 81.5892 46.6468 72.429 46.4026 62.866C44.1528 62.866 42.0806 62.8719 40.0083 62.866C37.5712 62.8569 35.1251 62.9552 32.6984 62.7847C30.4707 62.6286 29.2075 61.3731 29.0436 59.5887C28.8615 57.6065 29.9564 56.1643 32.2988 55.6588C33.6074 55.4385 34.9336 55.3419 36.2601 55.3705C39.5529 55.2977 42.8462 55.2743 46.4305 55.2274C46.4305 53.6538 46.4538 52.4567 46.4305 51.2591C46.1118 36.7872 46.6987 22.3421 47.7332 7.91186C47.8383 6.24642 48.0622 4.5907 48.4031 2.9574C48.7814 1.22632 49.9364 0.376059 51.4373 0.446967C53.0406 0.522429 53.8284 1.52037 54.0376 2.98408C54.2318 4.30076 54.3363 5.62916 54.3505 6.96013C54.4069 16.7514 54.3635 26.5414 54.4859 36.3339C54.5578 42.1172 54.8706 47.8977 55.0883 53.6784C55.1552 54.256 55.2527 54.8295 55.3805 55.3966Z" fill="black"/>
</g>
<defs>
<clipPath id="clip0">
<rect width="103" height="121" fill="white" transform="translate(0.777344)"/>
</clipPath>
</defs>
</svg>

<svg xmlns="http://www.w3.org/2000/svg" width="104" height="121" fill="none" viewBox="0 0 104 121"><g clip-path="url(#a)"><path fill="#000" d="M55.38 55.397c4.043 0 7.803-.054 11.559.029a11.4 11.4 0 0 1 3.883.656c2.957 1.167 3.255 3.939.762 5.978a6.64 6.64 0 0 1-4.65 1.431q-4.817-.183-9.635-.31c-.528-.016-1.058.06-1.49.087v27.789c1.512.117 2.68.26 3.85.29 11.52.322 23.044.566 34.56.985a25 25 0 0 1 6.773 1.328c1.716.565 2.481 2.288 2.368 4.047a4.04 4.04 0 0 1-.801 2.348 4 4 0 0 1-2.021 1.428 10.6 10.6 0 0 1-3.233.612q-6.314-.033-12.627-.277c-8.192-.313-16.381-.693-24.573-1.031-1.087-.045-2.178-.006-3.468-.006 0 1.731-.11 3.252.023 4.758.255 2.876.768 5.734.93 8.614a9.6 9.6 0 0 1-.673 4.19 3.16 3.16 0 0 1-.968 1.347 3.13 3.13 0 0 1-1.514.667 3.1 3.1 0 0 1-1.642-.194 3.16 3.16 0 0 1-1.318-1.005 11.75 11.75 0 0 1-2.276-4.717c-.682-3.137-.96-6.364-1.37-9.557-.184-1.419-.283-2.848-.44-4.477-1.134-.094-2.09-.23-3.045-.246-12.41-.199-24.82-.372-37.228-.585a11.6 11.6 0 0 1-3.258-.426 3.47 3.47 0 0 1-1.92-1.252 3.5 3.5 0 0 1-.728-2.178 3.7 3.7 0 0 1 .893-2.29 3.67 3.67 0 0 1 2.127-1.216 41.6 41.6 0 0 1 6.276-.64c10.966-.245 21.934-.415 32.902-.605 1.093-.019 2.187 0 3.712 0l-.717-28.103c-2.25 0-4.322.006-6.395 0-2.437-.01-4.883.09-7.31-.081-2.227-.156-3.49-1.412-3.654-3.196-.183-1.983.912-3.425 3.255-3.93a21 21 0 0 1 3.961-.288c3.293-.073 6.586-.097 10.17-.144 0-1.573.024-2.77 0-3.968-.318-14.472.269-28.917 1.303-43.347.105-1.666.33-3.321.67-4.955.378-1.73 1.533-2.58 3.034-2.51 1.604.075 2.391 1.073 2.6 2.537q.293 1.977.313 3.976c.057 9.791.014 19.581.136 29.374.072 5.783.385 11.564.602 17.344q.101.868.292 1.719"/></g><defs><clipPath id="a"><path fill="#fff" d="M.777 0h103v121h-103z"/></clipPath></defs></svg>
